!!!!SEGMENT: pl-wnifc--6021-n--006_elsner-jozef--rondo-a-la-krakowiak.krn
!!!cenid: 18xx:3917
!!!COM: Elsner, Józef
!!!COM-rismID: pe30000957
!!!CDT: 1769/06/01-1854/04/18
!!!CNT: Polish
!!!OTL: Rondo a la Krakowiak
!!!PDT:
!!!AGN:
!!!SMS-siglum: PL-Wnifc
!!!SMS-shelfmark: 6021/n
!!!SMS-shelfwork: 006 W
!!!SMS-variant:
!!!SMS-altvar:
!!!NIFC-rismSourceID: 1001134204
!!!NIFC-islandoraID: nifc:212586
!!!URL-pdf-islandora: https://repozytorium.nifc.pl/islandora/object/nifc%3A212586/datastream/PDF/view
!!!URL-scan: https://polish.musicsources.pl/pl/lokalizacje/galeria/druki-muzyczne/16848 @EN{Scan on Polish Music Sources Website} @PL{Skany w portalu Dziedzictwo Muzyki Polskiej w otwartym dostępie}
!!!ONB-nifc: UWAGA: s. 18-21
!!!AIN: 1 piano
!!!key: B-
**kern	**dynam	**kern	**dynam
*part1	*part1	*part1	*part1
*staff2	*	*staff1	*
*I"[Piano]	*	*I"[Piano]	*
*I'pf	*	*I'pf	*
*ICklav	*	*ICklav	*
*Ipiano	*	*Ipiano	*
*clefF4	*	*clefG2	*
*k[b-e-]	*	*k[b-e-]	*
*B-:	*	*B-:	*
*M2/4	*	*M2/4	*
=1	=1	=1	=1
!	!	!LO:TX:a:i:t=a la Krakowiak.	!
(8B-\L 8d	.	8.b-\L	.
8f\J	.	.	.
.	.	16cc\Jk	.
8B-\L 8d	.	8dd\L	.
8f\J)	.	8dd\J	.
=2	=2	=2	=2
(8B-\L 8d	.	(16dd\LL	.
.	.	16ee-\	.
8f\J	.	16dd\	.
.	.	16cc\JJ)	.
8B-\L 8d	.	8b-\L	.
8f\J)	.	8b-\J	.
=3	=3	=3	=3
8A\L 8c	.	8.cc\L	.
8f\J	.	.	.
.	.	16dd\Jk	.
8A\L 8c	.	(16ee-\LL	.
.	.	16dd\	.
8f\J	.	16ee-\	.
.	.	16ff\JJ)	.
=4	=4	=4	=4
8B-\L 8d	.	(8ee-\L	.
8f\J	.	8dd\J)	.
8B-\L 8d	.	4dd\	.
8f\J	.	.	.
=5	=5	=5	=5
8B-\L 8d	.	8.b-\L	mf
8f\J	.	.	.
.	.	16cc\Jk	.
8B-\L 8d	.	8dd\L	.
8f\J	.	8dd\J	.
=6	=6	=6	=6
8B-\L 8d	.	(16dd\LL	.
.	.	16ee-\	.
8f\J	.	16dd\	.
.	.	16cc\JJ)	.
8B-\L 8d	.	8b-\L	.
8f\J	.	8b-\J	.
=7	=7	=7	=7
(8F\L 8c	.	(16a\LL	.
.	.	16b-\	.
8e-\J	.	16cc\	.
.	.	16dd\JJ	.
8F\L 8c	.	16ee-\LL	.
.	.	16cc\	.
8e-\J)	.	16ff\	.
.	.	16a\JJ)	.
=8	=8	=8	=8
.	.	8qcc/	.
(8B-\L 8d	.	4b-\	.
8f\	.	.	.
8B-\ 8d	.	4b-\	.
8f\J)	.	.	.
=9:|!|:	=9:|!|:	=9:|!|:	=9:|!|:
*^	*	*	*
8A/L 8c	[2F\	.	8cc\L	f
8G#X/J 8Bn	.	.	8bn\	.
.	.	.	16qdd/	.
4A/ 4c	.	.	8cc\	.
.	.	.	8a\J	.
!!LO:LB:g=original	!	!	!
=10	=10	=10	=10	=10
8A/L 8c	2F\_	.	16cc\LL	.
.	.	.	16dd\	.
8G#X/J 8Bn	.	.	16cc\	.
.	.	.	16bn\JJ	.
.	.	.	8qdd/	.
4A/ 4c	.	.	8cc\L	.
.	.	.	8a\J	.
=11	=11	=11	=11	=11
8B-X/L 8d	2F\]	.	8dd\	.
8B-/ 8d	.	.	4bb-\	.
8G/ 8B-	.	.	.	.
8G/J 8B-	.	.	[8een\	.
*v	*v	*	*	*
=12	=12	=12	=12
(8F\L 8A	.	16ee\LL]	.
.	.	16ff\	.
8c\J	.	16aa\	.
.	.	16gg\JJ	.
8F\L 8A	.	8ff\L	.
8c\J)	.	8ff\J	.
=13	=13	=13	=13
*^	*	*	*
8A/L 8c	[2F\	.	8cc\L	.
8G#X/J 8Bn	.	.	8bn\	.
.	.	.	16qdd/	.
4A/ 4c	.	.	8cc\	.
.	.	.	8a\J	.
=14	=14	=14	=14	=14
8A/L 8c	2F\_	.	16cc\LL	.
.	.	.	16dd\	.
8G#X/J 8Bn	.	.	16cc\	.
.	.	.	16bn\JJ	.
.	.	.	16qdd/	.
4A/ 4c	.	.	8cc\L	.
.	.	.	8a\J	.
=15	=15	=15	=15	=15
8B-X/L 8d	2F\]	.	8dd\	.
8B-/ 8d	.	.	(4bb-\	.
8G/ 8B-	.	.	.	.
(<8G/J 8B-	.	.	8een\)	.
*v	*v	*	*	*
=16	=16	=16	=16
8F\L) 8A	.	8ff\	.
8c\J	.	4ccc\	rf
8F\L 8A	.	.	.
8c\J	.	(8aa\	.
=17	=17	=17	=17
8C\L 8G	.	(16ccc\LL)	.
.	.	16bb-\	.
8B-\J	.	16aa\	.
.	.	16gg\JJ	.
8C\L 8G	.	16ff\LL)	.
.	.	16een\	.
8B-\J	.	16gg\	.
.	.	16ee\JJ	.
=18	=18	=18	=18
8F\L 8A	.	8ff\	.
8c\J	.	4ccc\	rf
8F\L 8A	.	.	.
8c\J	.	(8aa\	.
!!LO:LB:g=original	!	!
=19	=19	=19	=19
(8C\L 8G	.	(16ccc\LL)	.
.	.	16bb-\	.
8B-\J	.	16aa\	.
.	.	16gg\JJ	.
8C\L 8G	.	16ff\LL)	.
.	.	16een\	.
8B-\J)	.	16gg\	.
.	.	16ee\JJ	.
=20	=20	=20	=20
8F\L 8A	.	16ff\LL	.
.	.	16ee-\	.
8c\J	.	16aa\	.
.	.	16ff\JJ	.
8C\L 8G	.	16een\LL	.
.	.	16gg\	.
8B-\J	.	16cc\	.
.	.	16ee\JJ	.
=21	=21	=21	=21
8F\L 8A	.	16ff\LL	.
.	.	16cc\	.
8c\J	.	16aa\	.
.	.	16ff\JJ	.
8C\L 8G	.	16een\LL	.
.	.	16gg\	.
8B-\J	.	16cc\	.
.	.	16ee\JJ	.
=22	=22	=22	=22
2r;	.	2r;	.
=23	=23	=23	=23
*tremolo	*	*	*
8F\L 8A	.	8r	.
!	!	!LO:TX:b:i:t=Dolce	!
8c\	.	(4eee-X\	rf
8F\ 8A	.	.	.
8c\J	.	16ddd\LL	.
.	.	16ccc\JJ)	.
=24	=24	=24	=24
8F\L 8B-	.	16ddd\LL	.
.	.	16eee-\	.
8d\	.	16ddd\	.
.	.	16ccc\JJ	.
8F\ 8B-	.	8bb-\L	.
8d\J	.	8bb-\J	.
=25	=25	=25	=25
8F\L 8c	.	(16bb-\LL	.
.	.	16aa\J	.
8e-\	.	8ff\J)	.
8F\ 8c	.	(16bb-\LL	.
.	.	16aa\J	.
8e-\J	.	8ff\J)	.
=26	=26	=26	=26
8F\L 8B- 8d	.	(16ddd\LL	.
.	.	16bb-\	.
8F\J 8c 8e-	.	16aa\	.
.	.	16ccc\JJ)	.
8F\ 8B- 8d	.	4bb-\	.
8r	.	.	.
=27	=27	=27	=27
8F\L 8A	.	8r	.
8c\	.	(4eee-\	rf
8F\ 8A	.	.	.
8c\J	.	16ddd\LL	.
.	.	16ccc\JJ)	.
=28	=28	=28	=28
8F\L 8B-	.	(16ddd\LL	.
.	.	16eee-\	.
8d\	.	16ddd\	.
.	.	16ccc\JJ)	.
8F\ 8B-	.	8bb-\L	.
8d\J	.	8bb-\J	.
!!LO:LB:g=original	!	!
=29	=29	=29	=29
8F\L 8c	.	(16bb-\LL	.
.	.	16aa\J	.
8e-\	.	8ff\J)	.
8F\ 8c	.	(16bb-\LL	.
.	.	16aa\J	.
8e-\J	.	8ff\J)	.
=30	=30	=30	=30
8F\L 8B- 8d	.	(16ddd\LL	<
.	.	16bb-\	.
8F\ 8c 8e-	.	16aa\	.
.	.	16ccc\JJ	.
8F\ 8B- 8d	.	16ddd\LL	.
.	.	16bb-\	.
8F\J 8c 8e-	.	16aa\	.
.	.	16ccc\JJ)	[[
=31	=31	=31	=31
(8B-\L 8d	.	8.bb-\L	mf
8f\	.	.	.
.	.	16ccc\Jk	.
8B-\ 8d	.	8ddd\L	.
8f\J)	.	8ddd\J	.
=32	=32	=32	=32
(8B-\L 8d	.	(16ddd\LL	.
.	.	16eee-\	.
8f\	.	16ddd\	.
.	.	16ccc\JJ)	.
8B-\ 8d	.	8bb-\L	.
8f\J)	.	8bb-\J	.
=33	=33	=33	=33
(8A\L 8c	.	8.ccc\L	.
8f\	.	.	.
.	.	16ddd\Jk	.
8A\ 8c	.	(16eee-\LL	.
.	.	16ddd\	.
8f\J)	.	16eee-\	.
.	.	16fff\JJ)	.
=34	=34	=34	=34
(8B-\L 8d	.	(8eee-\L	.
8f\	.	8ddd\J)	.
8B-\ 8d	.	4ddd\	.
8f\J)	.	.	.
=35	=35	=35	=35
(8B-\L 8d	.	8.bb-\L	.
8f\	.	.	.
.	.	16ccc\K	.
8B-\ 8d	.	8ddd\	.
8f\J)	.	8ddd\J	.
=36	=36	=36	=36
(8B-\L 8d	.	16ddd\LL	.
.	.	16eee-\	.
8f\	.	16ddd\	.
.	.	16ccc\JJ	.
8B-\ 8d	.	8bb-\L	.
8f\J)	.	8bb-\J	.
=37	=37	=37	=37
(8F\L 8c	.	(16aa\LL	.
.	.	16bb-\	.
8e-\	.	16ccc\	.
.	.	16ddd\JJ	.
8F\ 8c	.	16eee-\LL	.
.	.	16ccc\	.
8e-\J)	.	16fff\	.
.	.	16aa\JJ)	.
!!LO:PB:g=original	!	!
=38	=38	=38	=38
.	.	8qbb-/	.
(8B-\L 8d	.	4bb-\	.
8f\	.	.	.
8B-\ 8d	.	4bb-\	.
8f\J)	.	.	.
=39:|!|:	=39:|!|:	=39:|!|:	=39:|!|:
4GG/ 4G	.	4g\ 4gg	ff
4BB-/ 4B-	.	4b-\ 4bb-	.
=40	=40	=40	=40
4.D/ 4.d	.	(4.dd\ 4.ddd	.
8C#X/ 8c#X	.	16ccc#X\LL	.
.	.	16eeen\JJ)	.
=41	=41	=41	=41
8D/L 8d	.	8ddd\L	.
8D/ 8d	.	8ddd\	.
8BB-/ 8B-	.	8bb-\	.
8GG/J 8G	.	8gg\J	.
=42	=42	=42	=42
16F#X\LL	.	(16ff#X\LL	.
16G\	.	16gg\	.
16A\	.	16aa\	.
16F#\JJ	.	16ff#\JJ	.
4D/	.	4dd\)	.
=43	=43	=43	=43
(8D\L 8A	.	8aa\	p
8c\	.	4ddd\	.
8D\ 8A	.	.	.
8c\J)	.	8ff#X\	.
=44	=44	=44	=44
(8G\L 8B-	.	(16gg\LL	.
.	.	16ff#X\	.
8d\	.	16gg\	.
.	.	16aa\JJ	.
8G\ 8B-	.	16bb-\LL	.
.	.	16aa\	.
8d\J)	.	16bb-\	.
.	.	16gg\JJ)	.
=45	=45	=45	=45
(8D\L 8A	.	8aa\	.
8c\	.	4ddd\	.
8D\ 8A	.	.	.
8c\J)	.	8ff#X\	.
=46	=46	=46	=46
.	.	8qaa/	.
(8G\L 8B-	.	4gg\	.
8d\	.	.	.
8G\ 8B-	.	4gg\	.
8d\J)	.	.	.
=47:|!|:	=47:|!|:	=47:|!|:	=47:|!|:
(8A\L 8c	.	(16gg\LL	.
.	.	16ff#X\J)	.
8d\	.	8dd`\J	.
8A\ 8c	.	(16gg\LL	.
.	.	16ff#\J)	.
8d\J)	.	8dd`\J	.
=48	=48	=48	=48
(8G\L 8B-	.	(16gg\LL	.
.	.	16ff#X\	.
8d\	.	16gg\	.
.	.	16aa\JJ)	.
.	.	16qccc/	.
8G\ 8B-	.	8bb-\L	.
8d\J)	.	8gg\J	.
=49	=49	=49	=49
(8F#X\L 8A	.	8aa\	.
8d\	.	(4ddd\	rf
8F#\ 8A	.	.	.
8d\J)	.	8ccc\)	.
!!LO:LB:g=original	!	!
=50	=50	=50	=50
.	.	8qccc/	.
8G\L 8B-	.	4bb-\	.
8d\	.	.	.
8G\ 8B-	.	4bb-\	.
8d\J	.	.	.
=51	=51	=51	=51
8A\L 8c	.	(16gg\LL	.
.	.	16ff#X\J)	.
8d\	.	8dd\J	.
8A\ 8c	.	(16gg\LL	.
.	.	16ff#\J)	.
8d\J	.	8dd\J	.
=52	=52	=52	=52
8G\L 8B-	.	(16gg\LL	.
.	.	16ff#X\	.
8d\	.	16gg\	.
.	.	16aa\JJ	.
8G\ 8B-	.	16bb-\LL	.
.	.	16aa\	.
8d\J	.	16bb-\	.
.	.	16gg\JJ)	.
=53	=53	=53	=53
8C\L 8E-	.	(16eee-\LL	.
.	.	16ddd\	.
8A\J	.	16ccc\	.
.	.	16bb-\JJ	.
8D\L 8A	.	16aa\LL	.
.	.	16gg\	.
8c\J	.	16ff#X\	.
.	.	16aa\JJ)	.
=54	=54	=54	=54
.	.	8qgg/	.
8G\L 8B-	.	4gg\	.
8d\	.	.	.
8G\ 8B-	.	4gg\	.
8d\J	.	.	.
=55:|!|:	=55:|!|:	=55:|!|:	=55:|!|:
4GG/ 4G	.	4g\ 4gg	ff
4BB-/ 4B-	.	4b-\ 4bb-	.
=56	=56	=56	=56
4.D/ 4.d	.	4.dd\ 4.ddd	.
8C#X/ 8c#X	.	(16ccc#X\LL	.
.	.	16eeen\JJ)	.
=57	=57	=57	=57
8D/L 8d	.	8ddd\L	.
8D/ 8d	.	8ddd\	.
8BB-/ 8B-	.	8bb-\	.
8GG/J 8G	.	8gg\J	.
=58	=58	=58	=58
4.E-/ 4.e-	.	4.ee-\ 4.eee-	.
8D/ 8d	.	16ddd\LL	.
.	.	16fff\JJ	.
=59	=59	=59	=59
8E-/L 8e-	.	8eee-\L	.
.	.	8qfff/	.
8E-/ 8e-	.	8eee-\	.
8D/ 8d	.	8ddd\	.
8C/J 8c	.	8ccc\J	.
=60	=60	=60	=60
8BB-/L 8B-	.	8bb-\L	.
.	.	8qccc/	.
8BB-/ 8B-	.	8bb-\	.
8AA/ 8A	.	8aa\	.
8GG/J 8G	.	8gg\J	.
!!LO:LB:g=original	!	!
=61	=61	=61	=61
*Xtremolo	*	*	*
(16F\LL 16A-X 16Bn	.	4bn\ 4bbn	.
16d\	.	.	.
16F\ 16A- 16B	.	.	.
16d\JJ)	.	.	.
*rep	*	*	*
(16F\LL 16A- 16B	.	4dd\ 4ddd	.
16d\	.	.	.
16F\ 16A- 16B	.	.	.
16d\JJ)	.	.	.
*Xrep	*	*	*
=62	=62	=62	=62
(16F\LL 16A-X 16cn	.	8.ff\L 8.fff	.
16d\	.	.	.
16F\ 16A- 16cn	.	.	.
16d\JJ)	.	16ff\K 16fff	.
*rep	*	*	*
(16F\LL 16A- 16cn	.	8dd\ 8ddd	.
16d\	.	.	.
16F\ 16A- 16cn	.	8b-\J 8bb-	.
16d\JJ)	.	.	.
*Xrep	*	*	*
=63	=63	=63	=63
*tremolo	*	*	*
(16E-\LL 16G	.	16cc\LL 16ccc	.
16c\	.	16bbn\	.
16E-\ 16G	.	16ccc\	.
16c\	.	16ddd\JJ	.
.	.	16qeee-/	.
16E-\ 16G	.	8eee-\L	.
16c\	.	.	.
16E-\ 16G	.	8ccc\J	.
16c\JJ)	.	.	.
=64	=64	=64	=64
.	.	8qddd/	.
(16E-\LL 16G	.	8eee-\L	.
16c\	.	.	.
16E-\ 16G	.	8ccc\J	.
16c\	.	.	.
.	.	8qddd/	.
16E-\ 16G	.	8eee-\L	.
16c\	.	.	.
16E-\ 16G	.	8ccc\J	.
16c\JJ)	.	.	.
=65	=65	=65	=65
*Xtremolo	*	*	*
(16F\LL 16A-X 16B-	.	4a\ 4aan	.
16c\	.	.	.
16F\ 16A- 16B-	.	.	.
16c\JJ)	.	.	.
*rep	*	*	*
(16F\LL 16A- 16B-	.	4cc\ 4ccc	.
16c\	.	.	.
16F\ 16A- 16B-	.	.	.
16c\JJ)	.	.	.
*Xrep	*	*	*
=66	=66	=66	=66
(16F\LL 16A-X 16B-	.	8.ee-\L 8.eee-	.
16c\	.	.	.
16F\ 16A- 16B-	.	.	.
16c\JJ)	.	16ee-\K 16eee-	.
*rep	*	*	*
(16F\LL 16A- 16B-	.	8cc\ 8ccc	.
16c\	.	.	.
16F\ 16A- 16B-	.	8a\J 8aa	.
16c\JJ)	.	.	.
*Xrep	*	*	*
=67	=67	=67	=67
*tremolo	*	*	*
(16D\LL 16F	.	(16b-\LL 16bb-	.
16B-\	.	16aa\	.
16D\ 16F	.	16bb-\	.
16B-\	.	16ccc\JJ)	.
.	.	8qccc/	.
16D\ 16F	.	8ddd\L	.
16B-\	.	.	.
16D\ 16F	.	8bb-\J	.
16B-\JJ)	.	.	.
=68	=68	=68	=68
.	.	8qbb-/	.
(16D\LL 16F	.	8ddd\L	.
16B-\	.	.	.
16D\ 16F	.	8bb-\J	.
16B-\	.	.	.
.	.	8qbb-/	.
16D\ 16F	.	8ddd\L	.
16B-\	.	.	.
16D\ 16F	.	8bb-\J	.
16B-\JJ)	.	.	.
=69	=69	=69	=69
*Xtremolo	*	*	*
.	.	8qff#X/	.
16E-\LL 16G	.	8gg\L	.
16c\	.	.	.
16E-\ 16G	.	8ee-\J	.
16c\JJ	.	.	.
.	.	8qgg/	.
16F\LL 16c	.	8aa\L	.
16e-\	.	.	.
16F\ 16c	.	8ff#\J	.
16e-\JJ	.	.	.
!!LO:LB:g=original	!	!
=70	=70	=70	=70
.	.	8qaa/	.
4B-\ 4d	.	8bb-\L	.
.	.	8ff\J	.
.	.	8qaan/	>
4r	.	8bb-\L	.
.	.	8ff\J	.
=71	=71	=71	=71
.	.	8qbb-/	.
4r	.	8ccc\L	.
.	.	8ff\J	.
.	.	8qbb-/	.
(4A\ 4c#X	.	8ccc#X\L	.
.	.	8ff\J	]
=72	=72	=72	=72
.	.	8qccc#X/	.
4B-\ 4d	.	8ddd\L	.
.	.	8ff\J	.
.	.	8qgg/	.
4cn\) 4e-X	.	8aa\L	.
.	.	8ff\J	.
=73	=73	=73	=73
*tremolo	*	*	*
8B-\L 8d	.	8.bb-\L	mf
8f\	.	.	.
.	.	16ccc\Jk	.
8B-\ 8d	.	8ddd\L	.
8f\J	.	8ddd\J	.
=74	=74	=74	=74
8B-\L 8d	.	(16ddd\LL	.
.	.	16eee-\	.
8f\	.	16ddd\	.
.	.	16ccc\JJ)	.
8B-\ 8d	.	8bb-\L	.
8f\J	.	8bb-\J	.
=75	=75	=75	=75
8A\L 8c	.	8.ccc\L	.
8f\	.	.	.
.	.	16ddd\Jk	.
8A\ 8c	.	(16eee-\LL	.
.	.	16ddd\	.
8f\J	.	16eee-\	.
.	.	16fff\JJ)	.
=76	=76	=76	=76
8B-\L 8d	.	(8eee-\L	.
8f\	.	8ddd\J)	.
8B-\ 8d	.	4ddd\	.
8f\J	.	.	.
=77	=77	=77	=77
8B-\L 8d	.	8.bb-\L	.
8f\	.	.	.
.	.	16ccc\Jk	.
8B-\ 8d	.	8ddd\L	.
8f\J	.	8ddd\J	.
=78	=78	=78	=78
8B-\L 8d	.	(16ddd\LL	.
.	.	16eee-\	.
8f\	.	16ddd\	.
.	.	16ccc\JJ)	.
8B-\ 8d	.	8bb-\L	.
8f\J	.	8bb-\J	.
=79	=79	=79	=79
8F\L 8c	.	(16aa\LL	.
.	.	16bb-\	.
8e-\	.	16ccc\	.
.	.	16ddd\JJ	.
8F\ 8c	.	16eee-\LL	.
.	.	16ccc\	.
8e-\J	.	16fff\	.
.	.	16aa\JJ)	.
=80	=80	=80	=80
.	.	8qccc/	.
8B-\L 8d	.	4bb-\	.
8f\	.	.	.
8B-\ 8d	.	4bb-\	.
8f\J	.	.	.
!!LO:PB:g=original	!	!
=81:|!|:	=81:|!|:	=81:|!|:	=81:|!|:
*k[b-e-a-]	*	*k[b-e-a-]	*
!!LO:TX:t=P:problem: kolejność znaków przykluczowych: BB- E- A-	!	!	!
8r	.	(16ee-\LL	.
.	.	16dd\	.
(4e-\	rf	16ee-\	.
.	.	16ff\JJ)	.
.	.	8gg\L	.
8d\)	.	8ff\J	.
=82	=82	=82	=82
8c\L 8e-	.	8aa-\L	.
8B-\ 8d	.	8gg\	.
.	.	8qff/	.
8A-\ 8c	.	8ff\	.
8G\J 8B-	.	8ee-\J	.
=83	=83	=83	=83
4F\ 4A-	.	16dd\LL	.
.	.	16cc\	.
.	.	16dd\	.
.	.	16ee-\JJ	.
4D\ 4F 4B-	.	(8ff\L	.
.	.	16bb-\L	.
.	.	16aa-\JJ)	.
=84	=84	=84	=84
.	.	8qqaa-/	.
8E-\L 8G	.	4gg\	.
8B-\	.	.	.
8E-\ 8G	.	4gg\	.
8B-\J	.	.	.
=85	=85	=85	=85
8r	.	(16ee-\LL	.
.	.	16dd\	.
(4e-\	rf	16ee-\	.
.	.	16ff\JJ)	.
.	.	8qaa-/	.
.	.	8gg\L	.
8d\)	.	8ff\J	.
=86	=86	=86	=86
8c\L 8e-	.	8aa-\L	.
8B-\ 8d	.	8gg\	.
.	.	8qgg/	.
8A-\ 8c	.	8ff\	.
8G\J 8B-	.	8ee-\J	.
=87	=87	=87	=87
4F\ 4A-	.	(16dd\LL	.
.	.	16cc\	.
.	.	16dd\	.
.	.	16ee-\JJ	.
4BB-\ 4F 4A-	.	16ff\LL	.
.	.	16gg\	.
.	.	16aa-\	.
.	.	16dd\JJ)	.
=88	=88	=88	=88
.	.	8qqff/	.
(8E-\L 8G	.	4ee-\	.
8B-\	.	.	.
8E-\ 8G	.	4ee-\	.
8B-\J)	.	.	.
=89:|!|:	=89:|!|:	=89:|!|:	=89:|!|:
8BB-\ 8B-	.	16b-\LL	f
.	.	16bb-\JJ	.
4BB-\ 4B-	.	(4b-\ 4bb-	rf
8AAn\ 8An	.	16an\LL	.
.	.	16aa-\JJ)	.
=90	=90	=90	=90
8BB-\L 8B-	.	16b-\LL	.
.	.	16bb-\	.
8AA-X\ 8A-X	.	16a-X\	.
.	.	16aa-\JJ	.
8GG\ 8G	.	16g\LL	.
.	.	16gg\	.
8FF\J 8F	.	16f\	.
.	.	16ff\JJ	.
=91	=91	=91	=91
!	!	!LO:TX:t=P:problem:mixed beam	!
8EE-/L 8E-	.	16e-/LL	.
.	.	16ee-\	.
8DD/J 8D	.	16f/	.
.	.	16ff\JJ	.
!	!	!LO:TX:t=P:problem:mixed beam	!
8EE-/L 8E-	.	16g/LL	.
.	.	16gg\	.
8FF/J 8F	.	16a-/	.
.	.	16aa-\JJ	.
!!LO:LB:g=original	!	!	!
=92	=92	=92	=92
!	!	!LO:TX:t=P:problem:mixed beam	!
8DD/L 8D	.	16f/LL	.
.	.	16ff\	.
8CC#X/J 8C#X	.	16en/	.
.	.	16een\JJ	.
!	!	!LO:TX:t=P:problem:mixed beam	!
8DD/L 8D	.	16f/LL	.
.	.	16ff\	.
8BBB-/J 8BB-	.	16d/	.
.	.	16dd\JJ	.
=93	=93	=93	=93
8r	.	16ee-\LL	p
.	.	16dd\	.
(4e-\	rf	16ee-\	.
.	.	16ff\JJ	.
.	.	8gg\L	.
8B-\)	.	8ff\J	.
=94	=94	=94	=94
8c\L 8e-	.	8aa-\L	.
8B-\ 8d	.	8gg\	.
.	.	8qgg/	.
8A-\ 8c	.	8ff\	.
8G\J 8B-	.	8ee-\J	.
=95	=95	=95	=95
4F\ 4A-	.	(16dd\LL	.
.	.	16cc\	.
.	.	16dd\	.
.	.	16ee-\JJ	.
4BB-\ 4F 4A-	.	16ff\LL	.
.	.	16gg\	.
.	.	16aa-\	.
.	.	16dd\JJ)	.
=96	=96	=96	=96
.	.	8qqff/	.
8E-\L 8G	.	4ee-\	.
8B-\	.	.	.
8E-\ 8G	.	4ee-\	.
8B-\J	.	.	.
=97:|!	=97:|!	=97:|!	=97:|!
8C\ 8c	.	16cc\LL	f
.	.	16ccc\JJ	.
4C\ 4c	.	4cc\ 4ccc	rf
16BBn\ 16Bn	.	16bn\LL	.
16r	.	16bb-\JJ	.
=98	=98	=98	=98
8C\L 8c	.	16cc\LL	.
.	.	16ccc\	.
8BB-X\ 8B-X	.	16b-X\	.
.	.	16bb-\JJ	.
8AA-\ 8A-	.	16a-\LL	.
.	.	16aa-\	.
8GG\J 8G	.	16g\	.
.	.	16gg\JJ	.
=99	=99	=99	=99
!	!	!LO:TX:t=P:problem:mixed beam	!
8FF/L 8F	.	16f/LL	.
.	.	16ff\	.
8EEn/ 8En	.	16g/	.
.	.	16gg\JJ	.
!	!	!LO:TX:t=P:problem:mixed beam	!
8FF/ 8F	.	16a-/LL	.
.	.	16aa-\	.
8GG/J 8G	.	16b-/	.
.	.	16bb-\JJ	.
=100	=100	=100	=100
!	!	!LO:TX:t=P:problem:mixed beam	!
8FF/L 8F	.	16a-/LL	.
.	.	16aa-\	.
8EEn/ 8En	.	16g/	.
.	.	16gg\JJ	.
!	!	!LO:TX:t=P:problem:mixed beam	!
8FF/ 8F	.	16a-/LL	.
.	.	16aa-\	.
8DD/J 8D	.	16f/	.
.	.	16ff\JJ	.
=101	=101	=101	=101
8BBB-/ 8BB-	.	16b-\LL	.
.	.	16bb-\JJ	.
4BBB-/ 4BB-	.	4b-\ 4bb-	rf
8CC/ 8C	.	16an\LL	.
.	.	16aany\JJ	.
=102	=102	=102	=102
2DD/ 2D	.	16b-\LL	.
.	.	16bb-\	.
.	.	16an\	.
.	.	16aany\JJ	.
.	.	16b-\LL	.
.	.	16bb-\	.
.	.	16a-X\	.
.	.	16aa-y\JJ	.
!!LO:LB:g=original	!	!	!
=103	=103	=103	=103
!	!	!LO:TX:t=P:problem:mixed beam	!
4r	.	16g/LL	.
.	.	16gg\	.
.	.	16f#X/	.
.	.	16ff#X\JJ	.
!	!	!LO:TX:t=P:problem:mixed beam	!
4EE-/ 4E-	.	16g/LL	.
.	.	16gg\	.
.	.	16e-/	.
.	.	16ee-\JJ	.
=104	=104	=104	=104
4r	.	16an\LL	.
.	.	16aa-\	.
.	.	16g#X\	.
.	.	16gg#X\JJ	.
4F\ 4c 4e-	.	16a\LL	.
.	.	16aa-\	.
.	.	16f\	.
.	.	16ff\JJ	.
=105	=105	=105	=105
2r	.	2r	.
*clefG2	*	*	*
=106	=106	=106	=106
*k[ane-b-]	*	*k[ane-b-]	*
!LO:TX:t=P:problem: kolejność znaków przykluczowych: An  E- BB-	!	!LO:TX:t=P:problem: kolejność znaków przykluczowych: an  ee- b-	!
!LO:TX:t=P:problem: klucz wiolinowy pojawia się po znakach przykluczowych	!	!	!
8r	.	(16b-/LL	p
.	.	16a/	.
(>4b-/	rf	16b-/	.
.	.	16cc/JJ)	.
.	.	8dd/L	.
8an/)	.	8cc/J	.
=107	=107	=107	=107
8g/L 8b-	.	(<8ee-\L	.
8f/ 8a	.	8dd\J	.
.	.	8qdd/	.
8e-/ 8g	.	8cc\L	.
8d/J 8f	.	8b-\J	.
=108	=108	=108	=108
2c/ 2e-	.	16an/LL	.
.	.	16b-/	.
.	.	16cc/	.
.	.	16b-/JJ	.
.	.	16a/LL	.
.	.	16f/	.
.	.	16g/	.
.	.	16a/JJ)	.
=109	=109	=109	=109
(8B-/L 8d	.	8.b-\L	mf
8f/	.	.	.
.	.	16cc\K	.
8B-/ 8d	.	8dd\	.
8f/J)	.	8dd\J	.
=110	=110	=110	=110
8B-/L 8d	.	(16dd\LL	.
.	.	16ee-\	.
8f/	.	16dd\	.
.	.	16cc\JJ)	.
8B-/ 8d	.	8b-\L	.
8f/J	.	8b-\J	.
=111	=111	=111	=111
8A/L 8c	.	8.cc\L	.
8f/	.	.	.
.	.	16dd\Jk	.
8A/ 8c	.	(16ee-\LL	.
.	.	16dd\	.
8f/J	.	16ee-\	.
.	.	16ff\JJ)	.
=112	=112	=112	=112
(8B-/L 8d	.	8ee-\L	.
8f/	.	8dd\J	.
8B-/ 8d	.	4dd\	.
8f/J)	.	.	.
=113	=113	=113	=113
(8B-/L 8d	.	8.b-\L	.
8f/	.	.	.
.	.	16cc\Jk	.
8B-/ 8d	.	8dd\L	.
8f/J)	.	8dd\J	.
!!LO:LB:g=original	!	!	!
=114	=114	=114	=114
8B-/L 8d	.	16dd\LL	.
.	.	16ee-\	.
8f/	.	16dd\	.
.	.	16cc\JJ	.
8B-/ 8d	.	8b-\L	.
8f/J	.	8b-\J	.
*clefF4	*	*	*
=115	=115	=115	=115
8A\L 8c	.	16a\LL	.
.	.	16b-\	.
8e-\	.	16cc\	.
.	.	16dd\JJ	.
8A\ 8c	.	16ee-\LL	.
.	.	16cc\	.
8e-\J	.	16ff\	.
.	.	16a\JJ	.
=116	=116	=116	=116
.	.	8qqcc/	.
8B-\L 8d	.	4b-\	.
8f\	.	.	.
8B-\ 8d	.	4b-\	.
8f\J	.	.	.
=117	=117	=117	=117
*^	*	*	*
8A/L 8c	[>2F\	.	8cc\L	f
8G#X/J 8Bn	.	.	8bn\	.
.	.	.	16qdd/	.
4A/ 4c	.	.	8cc\	.
.	.	.	8a\J	.
=118	=118	=118	=118	=118
8A/L 8c	2F\_>	.	(16cc\LL	.
.	.	.	16dd\	.
8G#X/J 8Bn	.	.	16cc\	.
.	.	.	16bn\JJ	.
.	.	.	8qdd/)	.
4A/ 4c	.	.	8cc\L	.
.	.	.	8a\J	.
=119	=119	=119	=119	=119
*Xtremolo	*	*	*	*
8B-/L 8d	2F\]	.	8dd\	.
8B-/ 8d	.	.	4bb-\	rf
8G/ 8B-	.	.	.	.
8G/J 8B-	.	.	[8een\	.
*v	*v	*	*	*
=120	=120	=120	=120
*tremolo	*	*	*
(8F\L 8A	.	16ee\LL]	.
.	.	16ff\	.
8c\	.	16aa\	.
.	.	16gg\JJ	.
8F\ 8A	.	8ff\L	.
8c\J)	.	8ff\J	.
=121	=121	=121	=121
*^	*	*	*
8A/L 8c	[>2F\	.	8cc\L	.
8G#X/J 8Bn	.	.	8bn\	.
.	.	.	16qdd/	.
4A/ 4c	.	.	8cc\	.
.	.	.	8a\J	.
=122	=122	=122	=122	=122
8A/L 8c	2F\]	.	16cc\LL	.
.	.	.	16dd\	.
8G#X/J 8Bn	.	.	16cc\	.
.	.	.	16bn\JJ	.
.	.	.	16qdd/	.
4A/ 4c	.	.	8cc\L	.
.	.	.	8a\J	.
=123	=123	=123	=123	=123
*Xtremolo	*	*	*	*
8B-/L 8d	2F\	.	8dd\	.
8B-/ 8d	.	.	4bb-\	.
8G/ 8B-	.	.	.	.
8G/J 8B-	.	.	8een\	.
*v	*v	*	*	*
=124	=124	=124	=124
*tremolo	*	*	*
(8F\L 8A	.	8ff\	.
8c\	.	4ccc\	rf
8F\ 8A	.	.	.
8c\J)	.	8aa\	.
=125	=125	=125	=125
(8C\L 8G	.	(16ccc\LL	.
.	.	16bb-\	.
8B-\	.	16aa\	.
.	.	16gg\JJ	.
8C\ 8G	.	16ff\LL)	.
.	.	16een\	.
8B-\J)	.	16gg\	.
.	.	16ee\JJ	.
!!LO:PB:g=original	!	!	!
=126	=126	=126	=126
(8F\L 8A	.	8ff\	.
8c\	.	(4ccc\	rf
8F\ 8A	.	.	.
8c\J)	.	8aa\)	.
=127	=127	=127	=127
(8C\L 8G	.	16ccc\LL	.
.	.	16bb-\	.
8B-\	.	16aa\	.
.	.	16gg\JJ	.
8C\ 8G	.	16ff\LL	.
.	.	16een\	.
8B-\J)	.	16gg\	.
.	.	16ee\JJ	.
=128	=128	=128	=128
8F\L 8A	.	16ff\LL	.
.	.	16cc\	.
8c\	.	16aa\	.
.	.	16ff\JJ	.
8C\ 8G	.	16een\LL	.
.	.	16gg\	.
8B-\J	.	16cc\	.
.	.	16ee\JJ	.
=129	=129	=129	=129
8F\L 8A	.	16ff\LL	.
.	.	16cc\	.
8c\	.	16aa\	.
.	.	16ff\JJ	.
8C\ 8G	.	16een\LL	.
.	.	16gg\	.
8B-\J	.	16cc\	.
.	.	16ee\JJ	.
=130	=130	=130	=130
2r;	.	2r;	.
=131	=131	=131	=131
8F\L 8A	.	8r	.
!	!	!LO:TX:b:i:t=Dolce.	!
8c\	.	4eee-X\	.
8F\ 8A	.	.	.
8c\J	.	(16ddd\LL	.
.	.	16ccc\JJ)	.
=132	=132	=132	=132
8F\L 8B-	.	(16ddd\LL	.
.	.	16eee-\	.
8d\	.	16ddd\	.
.	.	16ccc\JJ)	.
8F\ 8B-	.	8bb-\L	.
8d\J	.	8bb-\J	.
=133	=133	=133	=133
8F\L 8c	.	(16bb-\LL	.
.	.	16aa\J	.
8e-\	.	8ff\J)	.
8F\ 8c	.	(16bb-\LL	.
.	.	16aa\J	.
8e-\J	.	8ff\J)	.
=134	=134	=134	=134
8F\L 8B- 8d	.	16ddd\LL	.
.	.	16bb-\	.
8F\J 8c 8e-	.	16aa\	.
.	.	16ccc\JJ	.
4F\ 4B- 4d	.	4bb-\	.
=135	=135	=135	=135
(8F\L 8A	.	8r	.
8c\	.	4eee-\	rf
8F\ 8A	.	.	.
8c\J)	.	(16ddd\LL	.
.	.	16ccc\JJ)	.
=136	=136	=136	=136
8F\L 8B-	.	16ddd\LL	.
.	.	16eee-\	.
8d\	.	16ddd\	.
.	.	16ccc\JJ	.
8F\ 8B-	.	8bb-\L	.
8d\J	.	8bb-\J	.
=137	=137	=137	=137
8F\L 8c	.	(16bb-\LL	.
.	.	16aa\J	.
8e-\	.	8ff\J)	.
8F\ 8c	.	(16bb-\LL	.
.	.	16aa\J	.
8e-\J	.	8ff\J)	.
=138	=138	=138	=138
*Xtremolo	*	*	*
8F\L 8B- 8d	.	(16ddd\LL	<
.	.	16bb-\	.
8F\ 8c 8e-	.	16aa\	.
.	.	16ccc\JJ	.
8F\ 8B- 8d	.	16ddd\LL	.
.	.	16bb-\	.
8F\J 8c 8e-	.	16aa\	.
.	.	16ccc\JJ)	[[
!!LO:LB:g=original	!	!	!
=139	=139	=139	=139
*tremolo	*	*	*
(8B-\L 8d	.	8.bb-\L	mf
8f\	.	.	.
.	.	16ccc\Jk	.
8B-\ 8d	.	8ddd\L	.
8f\J)	.	8ddd\J	.
=140	=140	=140	=140
(8B-\L 8d	.	(16ddd\LL	.
.	.	16eee-\	.
8f\	.	16ddd\	.
.	.	16ccc\JJ)	.
8B-\ 8d	.	8bb-\L	.
8f\J)	.	8bb-\J	.
=141	=141	=141	=141
(8A\L 8c	.	8.ccc\L	.
8f\	.	.	.
.	.	16ddd\Jk	.
8A\ 8c	.	16eee-\LL	.
.	.	16ddd\	.
8f\J)	.	16eee-\	.
.	.	16fff\JJ	.
=142	=142	=142	=142
(8B-\L 8d	.	(8eee-\L	.
8f\	.	8ddd\J)	.
8B-\ 8d	.	4ddd\	.
8f\J)	.	.	.
=143	=143	=143	=143
8B-\L 8d	.	8.bb-\L	.
8f\	.	.	.
.	.	16ccc\K	.
8B-\ 8d	.	8ddd\	.
8f\J	.	8ddd\J	.
=144	=144	=144	=144
8B-\L 8d	.	(16ddd\LL	.
.	.	16eee-\	.
8f\	.	16ddd\	.
.	.	16ccc\JJ	.
8B-\ 8d	.	8bb-\L)	.
8f\J	.	8bb-\J	.
=145	=145	=145	=145
8F\L 8c	.	(16aa\LL	.
.	.	16bb-\	.
8e-\	.	16ccc\	.
.	.	16ddd\JJ	.
8F\ 8c	.	16eee-\LL	.
.	.	16ccc\	.
8e-\J	.	16fff\	.
.	.	16aa\JJ)	.
=146	=146	=146	=146
8.B-\L 8.d	.	32ff\LLL	ff
.	.	32fff\	.
.	.	32ff\	.
.	.	32fff\JJJ	.
.	.	32ff\LLL	.
.	.	32fff\	.
16c\Jk 16e-	.	32ff\	.
.	.	32fff\JJJ	.
*Xtremolo	*	*	*
8d\L 8f	.	32ff\LLL	.
.	.	32fff\	.
.	.	32ff\	.
.	.	32fff\JJJ	.
8d\J 8f	.	32ff\LLL	.
.	.	32fff\	.
.	.	32ff\	.
.	.	32fff\JJJ	.
=147	=147	=147	=147
*	*	*tremolo	*
8.d\L 8.f	.	32ff\LLL	.
.	.	32fff\	.
.	.	32ff\	.
.	.	32fff\	.
.	.	32ff\	.
.	.	32fff\	.
16c\Jk 16e-	.	32ff\	.
.	.	32fff\	.
8d\L 8f	.	32ff\	.
.	.	32fff\	.
.	.	32ff\	.
.	.	32fff\	.
8d\J 8f	.	32ff\	.
.	.	32fff\	.
.	.	32ff\	.
.	.	32fff\JJJ	.
=148	=148	=148	=148
*tremolo	*	*	*
8F\L 8c	.	16aa\LL	p
.	.	16bb-\	.
8e-\	.	16ccc\	.
.	.	16ddd\JJ	.
8F\ 8c	.	16eee-\LL	.
.	.	16ccc\	.
8e-\J	.	16fff\	.
.	.	16aa\JJ	.
=149	=149	=149	=149
*Xtremolo	*	*Xtremolo	*
8.B-\L 8.d	.	32ff\LLL	ff
.	.	32fff\	.
.	.	32ff\	.
.	.	32fff\JJJ	.
*	*	*rep	*
.	.	32ff\LLL	.
.	.	32fff\	.
16c\Jk 16e-	.	32ff\	.
.	.	32fff\JJJ	.
*	*	*Xrep	*
*	*	*rep	*
8d\L 8f	.	32ff\LLL	.
.	.	32fff\	.
.	.	32ff\	.
.	.	32fff\JJJ	.
*	*	*Xrep	*
*	*	*rep	*
8d\J 8f	.	32ff\LLL	.
.	.	32fff\	.
.	.	32ff\	.
.	.	32fff\JJJ	.
*	*	*Xrep	*
!!LO:LB:g=original	!	!	!
=150	=150	=150	=150
*	*	*tremolo	*
8.d\L 8.f	.	32ff\LLL	.
.	.	32fff\	.
.	.	32ff\	.
.	.	32fff\	.
.	.	32ff\	.
.	.	32fff\	.
16c\Jk 16e-	.	32ff\	.
.	.	32fff\	.
8B-\L 8d	.	32ff\	.
.	.	32fff\	.
.	.	32ff\	.
.	.	32fff\	.
8B-\J 8d	.	32ff\	.
.	.	32fff\	.
.	.	32ff\	.
.	.	32fff\JJJ	.
=151	=151	=151	=151
*tremolo	*	*	*
8F\L 8c	.	(16aa\LL	p
.	.	16bb-\	.
8e-\	.	16ccc\	.
.	.	16ddd\JJ	.
8F\ 8c	.	16eee-\LL	.
.	.	16ccc\	.
8e-\J	.	16fff\	.
.	.	16aa\JJ)	.
=152	=152	=152	=152
8.B-\L 8.d	.	(32b-\LLL	ff
.	.	32bb-\	.
.	.	32b-\	.
.	.	32bb-\	.
.	.	32b-\	.
.	.	32bb-\	.
*Xtremolo	*	*	*
16c\Jk 16e-	.	32b-\	.
.	.	32bb-\	.
8d\L 8f	.	32b-\	.
.	.	32bb-\	.
.	.	32b-\	.
.	.	32bb-\	.
8d\J 8f	.	32b-\	.
.	.	32bb-\	.
.	.	32b-\	.
.	.	32bb-\JJJ)	.
=153	=153	=153	=153
8.d\L 8.f	.	(32b-\LLL	.
.	.	32bb-\	.
.	.	32b-\	.
.	.	32bb-\	.
.	.	32b-\	.
.	.	32bb-\	.
16c\Jk 16e-	.	32b-\	.
.	.	32bb-\	.
8B-\L 8d	.	32b-\	.
.	.	32bb-\	.
.	.	32b-\	.
.	.	32bb-\	.
8B-\J 8d	.	32b-\	.
.	.	32bb-\	.
.	.	32b-\	.
.	.	32bb-\JJJ)	.
=154	=154	=154	=154
8.GG/L 8.G	.	(32dd\LLL 32gg 32bb-	.
.	.	32ddd\	.
.	.	32dd\ 32gg 32bb-	.
.	.	32ddd\	.
.	.	32dd\ 32gg 32bb-	.
.	.	32ddd\	.
16AA/Jk 16A	.	32dd\ 32gg 32bb-	.
.	.	32ddd\	.
8BB-/L 8B-	.	32dd\ 32gg 32bb-	.
.	.	32ddd\	.
.	.	32dd\ 32gg 32bb-	.
.	.	32ddd\	.
8BB-/J 8B-	.	32dd\ 32gg 32bb-	.
.	.	32ddd\	.
.	.	32dd\ 32gg 32bb-	.
.	.	32ddd\JJJ)	.
=155	=155	=155	=155
8.BB-/L 8.B-	.	(32dd\LLL 32gg 32bb-	.
.	.	32ddd\	.
.	.	32dd\ 32gg 32bb-	.
.	.	32ddd\	.
.	.	32dd\ 32gg 32bb-	.
.	.	32ddd\	.
16AA/Jk 16A	.	32dd\ 32gg 32bb-	.
.	.	32ddd\	.
8GG/L 8G	.	32dd\ 32gg 32bb-	.
.	.	32ddd\	.
.	.	32dd\ 32gg 32bb-	.
.	.	32ddd\	.
8GG/J 8G	.	32dd\ 32gg 32bb-	.
.	.	32ddd\	.
.	.	32dd\ 32gg 32bb-	.
.	.	32ddd\JJJ)	.
=156	=156	=156	=156
8.EEny/L 8.En	.	32een\LLL 32gg 32bb-	.
.	.	32ddd-X\	.
.	.	32ee\ 32gg 32bb-	.
.	.	32ddd-\	.
.	.	32ee\ 32gg 32bb-	.
.	.	32ddd-\	.
16GG/Jk 16G	.	32ee\ 32gg 32bb-	.
.	.	32ddd-\	.
8BB-/L 8B-	.	32ee\ 32gg 32bb-	.
.	.	32ddd-\	.
.	.	32ee\ 32gg 32bb-	.
.	.	32ddd-\	.
8EE-y/J 8E	.	32ee\ 32gg 32bb-	.
.	.	32ddd-\	.
.	.	32ee\ 32gg 32bb-	.
.	.	32ddd-X\JJJ	.
=157	=157	=157	=157
*tremolo	*	*	*
!LO:TX:t=P:problem:mixed beam	!	!	!
32FF/LLL	.	8.ddn\L 8.ff 8.bb-	.
32F\	.	.	.
32FF/	.	.	.
32F\	.	.	.
32FF/	.	.	.
32F\	.	.	.
32FF/	.	16ee-\Jk 16ccc	.
32F\	.	.	.
32FF/	.	8ff\L 8fff	.
32F\	.	.	.
32FF/	.	.	.
32F\	.	.	.
32FF/	.	8cc\J 8ee- 8aa	.
32F\	.	.	.
32FF/	.	.	.
32F\JJJ	.	.	.
=158	=158	=158	=158
*	*	*Xtremolo	*
(32BBB-/LLL	.	8.dd\L 8.bb-	.
32BB-/	.	.	.
32BBB-/	.	.	.
32BB-/	.	.	.
32BBB-/	.	.	.
32BB-/	.	.	.
32BBB-/	.	16ee-\Jk 16ccc	.
32BB-/	.	.	.
32BBB-/	.	8ff\L 8ddd	.
32BB-/	.	.	.
32BBB-/	.	.	.
32BB-/	.	.	.
32BBB-/	.	8ff\J 8ddd	.
32BB-/	.	.	.
32BBB-/	.	.	.
32BB-/JJJ)	.	.	.
=159	=159	=159	=159
(32BBB-/LLL	.	(16ff\LL 16ddd	.
32BB-/	.	.	.
32BBB-/	.	16gg\ 16eee-	.
32BB-/	.	.	.
32BBB-/	.	16ff\ 16ddd	.
32BB-/	.	.	.
32BBB-/	.	16ee-\JJ) 16ccc	.
32BB-/	.	.	.
32BBB-/	.	8dd\L 8bb-	.
32BB-/	.	.	.
32BBB-/	.	.	.
32BB-/	.	.	.
32BBB-/	.	8dd\J 8bb-	.
32BB-/	.	.	.
32BBB-/	.	.	.
32BB-/JJJ)	.	.	.
=160	=160	=160	=160
(32BBB-/LLL	.	8ee-\L 8gg	.
32BB-/	.	.	.
32BBB-/	.	.	.
32BB-/	.	.	.
32BBB-/	.	(8dd\ 8ff	.
32BB-/	.	.	.
32BBB-/	.	.	.
32BB-/	.	.	.
32BBB-/	.	8ee-\ 8gg	.
32BB-/	.	.	.
32BBB-/	.	.	.
32BB-/	.	.	.
32BBB-/	.	8cc\J) 8aa	.
32BB-/	.	.	.
32BBB-/	.	.	.
32BB-/JJJ)	.	.	.
!!LO:LB:g=original	!	!	!
=161	=161	=161	=161
.	.	8qee-/ 8qccc	.
(32BBB-/LLL	.	4dd\ 4bb-	.
32BB-/	.	.	.
32BBB-/	.	.	.
32BB-/	.	.	.
32BBB-/	.	.	.
32BB-/	.	.	.
32BBB-/	.	.	.
32BB-/	.	.	.
32BBB-/	.	4dd\ 4bb-	.
32BB-/	.	.	.
32BBB-/	.	.	.
32BB-/	.	.	.
32BBB-/	.	.	.
32BB-/	.	.	.
32BBB-/	.	.	.
32BB-/JJJ)	.	.	.
=162	=162	=162	=162
(32BBB-/LLL	.	8.B-/L 8.b-	p
32BB-/	.	.	.
32BBB-/	.	.	.
32BB-/	.	.	.
32BBB-/	.	.	.
32BB-/	.	.	.
32BBB-/	.	16e-/K 16ee-	.
32BB-/	.	.	.
32BBB-/	.	8f/ 8dd	.
32BB-/	.	.	.
32BBB-/	.	.	.
32BB-/	.	.	.
32BBB-/	.	8f/J 8dd	.
32BB-/	.	.	.
32BBB-/	.	.	.
32BB-/JJJ)	.	.	.
=163	=163	=163	=163
(32BBB-/LLL	.	(16f/LL 16dd	.
32BB-/	.	.	.
32BBB-/	.	16g/ 16ee-	.
32BB-/	.	.	.
32BBB-/	.	16f/ 16dd	.
32BB-/	.	.	.
32BBB-/	.	16e-/JJ 16cc	.
32BB-/	.	.	.
32BBB-/	.	8d/L 8b-	.
32BB-/	.	.	.
32BBB-/	.	.	.
32BB-/	.	.	.
32BBB-/	.	8d/J) 8b-	.
32BB-/	.	.	.
32BBB-/	.	.	.
32BB-/JJJ)	.	.	.
=164	=164	=164	=164
(32BBB-/LLL	.	8e-/L 8g	.
32BB-/	.	.	.
32BBB-/	.	.	.
32BB-/	.	.	.
32BBB-/	.	8d/ 8f	.
32BB-/	.	.	.
32BBB-/	.	.	.
32BB-/	.	.	.
32BBB-/	.	8e-/ 8g	.
32BB-/	.	.	.
32BBB-/	.	.	.
32BB-/	.	.	.
32BBB-/	.	8c/J 8a	.
32BB-/	.	.	.
32BBB-/	.	.	.
32BB-/JJJ)	.	.	.
=165	=165	=165	=165
.	.	8qe-/ 8qcc	.
(32BBB-/LLL	.	4d/ 4b-	.
32BB-/	.	.	.
32BBB-/	.	.	.
32BB-/	.	.	.
32BBB-/	.	.	.
32BB-/	.	.	.
32BBB-/	.	.	.
32BB-/	.	.	.
32BBB-/	.	4d/ 4b-	.
32BB-/	.	.	.
32BBB-/	.	.	.
32BB-/	.	.	.
32BBB-/	.	.	.
32BB-/	.	.	.
32BBB-/	.	.	.
32BB-/JJJ)	.	.	.
=166	=166	=166	=166
*	*	*^	*
.	.	8qqee-/	8qqcc\	<
(32BBB-/LLL	.	4b-\ 4dd\	4ryy	.
32BB-/	.	.	.	.
32BBB-/	.	.	.	.
32BB-/	.	.	.	.
32BBB-/	.	.	.	.
32BB-/	.	.	.	.
32BBB-/	.	.	.	.
32BB-/	.	.	.	.
32BBB-/	.	4b-\ 4dd\	4ryy	.
32BB-/	.	.	.	.
32BBB-/	.	.	.	.
32BB-/	.	.	.	.
32BBB-/	.	.	.	.
32BB-/	.	.	.	.
32BBB-/	.	.	.	.
32BB-/JJJ)	.	.	.	.
=167	=167	=167	=167	=167
.	.	8qqgg/	8qqee-\	.
(32BBB-/LLL	.	4dd\ 4ff\	4ryy	.
32BB-/	.	.	.	.
32BBB-/	.	.	.	.
32BB-/	.	.	.	.
32BBB-/	.	.	.	.
32BB-/	.	.	.	.
32BBB-/	.	.	.	.
32BB-/	.	.	.	.
32BBB-/	.	4dd\ 4ff\	4ryy	.
32BB-/	.	.	.	.
32BBB-/	.	.	.	.
32BB-/	.	.	.	.
32BBB-/	.	.	.	.
32BB-/	.	.	.	.
32BBB-/	.	.	.	.
32BB-/JJJ)	.	.	.	[[
*	*	*v	*v	*
=168	=168	=168	=168
(32BBB-/LLL	.	4dd\ 4ff 4bb-	ff
32BB-/	.	.	.
32BBB-/	.	.	.
32BB-/	.	.	.
32BBB-/	.	.	.
32BB-/	.	.	.
32BBB-/	.	.	.
32BB-/	.	.	.
32BBB-/	.	4r	.
32BB-/	.	.	.
32BBB-/	.	.	.
32BB-/	.	.	.
32BBB-/	.	.	.
32BB-/	.	.	.
32BBB-/	.	.	.
32BB-/JJJ)	.	.	.
=169	=169	=169	=169
(32BBB-/LLL	.	4ff\ 4ddd	.
32BB-/	.	.	.
32BBB-/	.	.	.
32BB-/	.	.	.
32BBB-/	.	.	.
32BB-/	.	.	.
32BBB-/	.	.	.
32BB-/	.	.	.
32BBB-/	.	4r	.
32BB-/	.	.	.
32BBB-/	.	.	.
32BB-/	.	.	.
32BBB-/	.	.	.
32BB-/	.	.	.
32BBB-/	.	.	.
32BB-/JJJ)	.	.	.
=170	=170	=170	=170
4BBB-/ 4BB-	.	4d/ 4f 4b-	.
4r	.	4r	.
==	==	==	==
*-	*-	*-	*-
!!!system-decoration: {(s1,s2)}
!!!RDF**kern: > = above
!!!RDF**kern: < = below
!!!ENC: Marta Opryszak
!!!END: 2022-07-26
!!!ENC: Jan Barakat
!!!END: 2022-08-23
!!!YEC: Copyright 2022 Narodowy Instytut Fryderyka Chopina (https://polishscores.org)
!!!YEM: Licence CC BY 4.0 (https://creativecommons.org/licenses/by/4.0)
